azure-patterns/svg-user-cloud.svg

<svg xmlns="http://www.w3.org/2000/svg" viewBox="0 0 48 42">
                                
                            
    <path fill-rule="evenodd" clip-rule="evenodd" d="M41.9831 11.837C41.0975 11.837 40.2594 12.0332 39.5022 12.3769C39.8797 11.3738 40.0961 10.2916 40.0961 9.15624C40.0961 4.09936 35.9968 0 30.9399 0C26.5777 0 22.9348 3.05305 22.0143 7.13693C21.1088 6.2016 19.8423 5.61785 18.4377 5.61785C15.6872 5.61785 13.4573 7.8477 13.4573 10.5985C13.4573 10.64 13.4626 10.6806 13.4635 10.7223C10.4148 11.3224 8.11426 14.0081 8.11426 17.2332C8.11426 20.8992 11.0861 23.8713 14.7524 23.8713H41.9831C45.3063 23.8713 48.0002 21.1775 48.0002 17.854C48.0002 14.5311 45.3063 11.837 41.9831 11.837Z" fill="#0078D4"></path>
    <path fill-rule="evenodd" clip-rule="evenodd" d="M0 15.064V41.0265H20.7984H21.2096V40.4757V15.064H0Z" fill="#50E6FF"></path>
    <path fill-rule="evenodd" clip-rule="evenodd" d="M14.9228 29.7575C14.3606 29.4252 13.6452 29.3487 13.0317 29.6045C12.2908 29.9108 11.3964 30.0898 10.7066 30.0898C10.0931 30.0898 9.37764 29.9619 8.71329 29.7064C8.10005 29.4509 7.41002 29.4509 6.84788 29.7575C4.75235 30.9586 2.1969 32.7314 2.1969 33.3701C2.1969 34.1623 2.09469 36.9126 2.04359 38.139C2.01819 38.4714 2.29911 38.7526 2.63142 38.7269L18.9599 38.6939C19.2812 38.6933 19.5399 38.4314 19.5355 38.1104C19.518 36.7899 19.4777 33.6627 19.4692 33.3701C19.4088 32.6453 16.9272 30.9247 14.9228 29.7575Z" fill="#0078D4"></path>
    <path fill-rule="evenodd" clip-rule="evenodd" d="M10.707 28.4797C13.2473 28.4797 15.3066 26.4204 15.3066 23.8801C15.3066 21.3399 13.2473 19.2803 10.707 19.2803C8.16674 19.2803 6.10742 21.3399 6.10742 23.8801C6.10742 26.4204 8.16674 28.4797 10.707 28.4797Z" fill="#0078D4"></path>
</svg>

<svg xmlns="http://www.w3.org/2000/svg" viewBox="0 0 48 42"><path fill-rule="evenodd" clip-rule="evenodd" d="M41.983 11.837c-.886 0-1.724.196-2.48.54a9.118 9.118 0 0 0 .593-3.22c0-5.058-4.1-9.157-9.156-9.157-4.362 0-8.005 3.053-8.926 7.137a4.963 4.963 0 0 0-3.576-1.52 4.98 4.98 0 0 0-4.98 4.981c0 .042.005.083.005.124a6.639 6.639 0 0 0 1.29 13.15h27.23a6.017 6.017 0 1 0 0-12.035z" fill="#0078D4"/><path fill-rule="evenodd" clip-rule="evenodd" d="M0 15.064v25.962H21.21V15.064H0z" fill="#50E6FF"/><path fill-rule="evenodd" clip-rule="evenodd" d="M14.923 29.758c-.562-.333-1.278-.41-1.891-.153-.741.306-1.636.485-2.325.485a5.73 5.73 0 0 1-1.994-.384c-.613-.255-1.303-.255-1.865.052-2.096 1.2-4.651 2.973-4.651 3.612 0 .792-.102 3.543-.153 4.769a.55.55 0 0 0 .587.588l16.329-.033c.321 0 .58-.263.575-.584-.017-1.32-.057-4.447-.066-4.74-.06-.725-2.542-2.445-4.546-3.612zM10.707 28.48a4.6 4.6 0 1 0 0-9.2 4.6 4.6 0 0 0 0 9.2z" fill="#0078D4"/></svg>
